Catalina-light/actions/16/labplot-xy-plot-two-axes.svg

<svg width="16" height="16" viewBox="0 0 16 16" xmlns="http://www.w3.org/2000/svg">
<defs>
<style id="current-color-scheme" type="text/css">.ColorScheme-Text { color:#5c616c; } .ColorScheme-Highlight { color:#5294e2; }</style>
</defs>
<path class="ColorScheme-Text" d="m1 0v14h-1v1h1v1h1v-1h14v-1h-0.84375l-0.1875-0.1875-0.84375-0.8125-1.2812-1.3125-0.71875-0.6875-2.125 2.0938-1.3125-1.2812-2.8125-2.8125h-3.875v-2h3.875l2-2 0.8125-0.84375 1.3125-1.2812 2.125 2.125 3.875-3.875v-0.21875h-0.21875l-0.5-0.46875-3.1562 3.1562-2.125-2.125-2 2-0.84375 0.8125-1.6875 1.7188h-3.4688v-6h-1zm1 10h3.4688l4 4h-7.4688v-4zm10.125 2.4062 1.3125 1.2812 0.29492 0.3125h-3.2012l1.5938-1.5938z" fill="#363636"/>
</svg>

<svg xmlns="http://www.w3.org/2000/svg" width="16" height="16" viewBox="0 0 16 16">
 <defs>
  <style id="current-color-scheme" type="text/css">
   .ColorScheme-Text { color:#5c616c; } .ColorScheme-Highlight { color:#5294e2; }
  </style>
 </defs>
 <path style="fill:currentColor" class="ColorScheme-Text" d="M 1 0 L 1 14 L 0 14 L 0 15 L 1 15 L 1 16 L 2 16 L 2 15 L 16 15 L 16 14 L 15.15625 14 L 14.96875 13.8125 L 14.125 13 L 12.84375 11.6875 L 12.125 11 L 10 13.09375 L 8.6875 11.8125 L 7.875 11 L 5.875 9 L 2 9 L 2 7 L 5.875 7 L 7.875 5 L 8.6875 4.15625 L 10 2.875 L 12.125 5 L 14.125 3 L 14.96875 2.15625 L 16 1.125 L 16 0.90625 L 15.78125 0.90625 L 15.28125 0.4375 L 14.25 1.46875 L 13.4375 2.28125 L 12.125 3.59375 L 10 1.46875 L 8.46875 3 L 8 3.46875 L 7.15625 4.28125 L 5.46875 6 L 2 6 L 2 0 L 1 0 z M 2 10 L 5.46875 10 L 7.15625 11.6875 L 8 12.53125 L 8.46875 13 L 9.46875 14 L 2 14 L 2 10 z M 12.125 12.40625 L 13.4375 13.6875 L 13.732422 14 L 10.53125 14 L 12.125 12.40625 z"/>
</svg>
